X:1
T:D Major Samuel Babcock, 1803
T:Isaac Watts, 1719 (Psalm 95, Part 1)      86. 86. (C. M.)
T:North Kingston
T:Treble-Tenor-Bass from The Middlesex Harmony , 1803; Counter written by B. C. Johnston, 2016.
%%score [ 1 2 3 4 ]
L:1/8
Q:1/4=100
M:2/4
K:D
V:1 treble nm="Tr." snm="Tr."
V:2 treble nm="C." snm="C."
V:3 treble-8 nm="T." snm="T."
V:4 bass nm="B." snm="B."
V:1
 d2 dA | F3 f | gf ed | c3 d | f2 d2 | c2 B2 | A3 A | F2 A2 | d2 gf | ed cB | A3 A | d2 A2 | %12
w: 1.~Sing to the|Lord Je-|ho- * vah's *|name, And|in his|strength re-|joice; When|his sal-|va- tion *|is * our *|theme, Ex-|al- ted|
 F2 A2 | d4 |: z2 A2 | F2 A2 | d3 d | gf ed | c3 c | d2 f2 | e2 ed | c3 f | d2 d2 | d2 fd | e2 Ad | %25
w: be our|voice.|With|thanks ap-|proach his|aw- * ful *|throne, And|psalms of|ho- nor *|sing; The|great Je-|ho- vah *|reigns a- *|
 c3 d | f3 e | d2 c2 | d4 :| %29
w: lone, The|whole cre-|a- tion's|King.|
V:2
 F2 AA | A3 d | cB cB | A3 F | A2 D2 | E2 E2 | A3 F | F2 A2 | B2 GA | cB cB | c3 A | d2 A2 | %12
w: 2.~Let prin- ces|hear, let|an- * gels *|know, How|mean their|na- tures|seem, Those|gods on|high and *|gods * be- *|low, When|once com-|
 F2 A2 | D4 |: z2 F2 | D2 F2 | A3 d | cB AB | A3 A | A2 A2 | A2 B2 | A3 F | G2 G2 | A2 FA | E2 D2 | %25
w: pared with|him.|Earth,|with its|ca- verns|dark * and *|deep, Lies|in his|spa- cious|hand; He|fixed the|seas what *|bounds to|
 C3 F | A3 F | A2 c2 | d4 :| %29
w: keep, And|where the|hills must|stand.|
V:3
 A2 AA | d3 f | ed cB | A3 A | d2 f2 | e2 d2 | c3 d | A2 F2 | B2 Bd | cB AG | A3 A | d2 A2 | %12
w: 3.~Come, and with|hum- ble|souls * a- *|dore; Come,|kneel be-|fore his|face; O|may the|crea- tures *|of * his *|power Be|chil- dren|
 F2 A2 | d4 |: z2 d2 | A2 F2 | A3 f | ed cB | A3 e | f2 d2 | c2 B2 | A3 A | B2 B2 | A2 d2 | G2 F2 | %25
w: of his|grace!|Now|is the|time: he|bends * his *|ear, And|waits for|your re-|quest; Come,|lest he|rouse his|wrath and|
{F} E3 F | A3 g | f2 e2 | d4 :| %29
w: swear, "Ye|shall nor|see my|rest."|
V:4
 D,2 D,D, | D,3 D, | E,2 E,2 | A,2 F,2 | D,2 D,2 | E,2 E,2 | A,,3 D, | D,2 D,2 | G,2 G,2 | %9
 E,2 F,G, | A,3 A, | D2 A,2 | F,2 A,2 | D,4 |: z2 D,2 | D,2 D,2 | D,3 D, | E,2 E,2 | A,2 A,,2 | %19
 D,2 D,2 | E,2 E,2 | A,,3 F, | G,2 G,2 | F,2 F,2 | E,2 D,2 | A,,3 D, | D,2 G,2 | A,2 [A,,A,]2 | %28
 D,4 :| %29

